X: 28
T:Mulqueen's
M:C|
L:1/8
Q:200
S:THSP
R:reel
D:Cran: The Crooked Stair
H:
Z:
K:D
"D"F2EG FDDE|FDAG FDDE|F2EG FDDE|1 "A"FABc "D"dBAG:|2 "A"FABc "D"d2cd||:
"A"~e3d efed|cdef "G"g2fg
|1 "A"~e3d efed|cABc "D"d2cd:|2 "D"af~f2 "G"ge~e2|"A"dfec "D"dBAG|]
